X:1
T:Title
%%score { 1 | ( 2 3 ) }
L:1/8
M:4/4
K:Bb
V:1 treble nm="Grand Piano"
V:2 bass 
V:3 bass 
V:1
 z4 z2 z[Q:1/4=96] [DF] |[M:3/4] [Fd][Fd] [Fd][Fd] [Fc][FB] | [Gc][GB] [EG] [GB]2 [EG]/[EG]/ | %3
 [DF][DF] [DF] [DB]2 [FB]/c/ |[M:7/8] dcB c3 F |[M:3/4] [Fd][Fd] [Fd][Fd] [Fc][FB] | %6
[M:5/8] cBG B2 |[M:1/8] [Ge]/[Ge]/ |[M:3/4] [Fd][Ec] [DB] [Fd]2 c | B2 A [DB]3 | %10
[M:1/8] [DB]/[DB]/ |[M:3/4] [Fd][Fd] [Fd][Fd] c[DB] | [Fd]2 [Fd] [DB]2 F |[M:3/8] GGG | %14
 [Gc][GB][EG] |[M:3/4] [GB][GB] B F2 F | [Fd][Fd] [Fd][Fd] cB | cB G B3 |[M:1/8] [Ge]/[Ge]/ | %19
[M:3/4] [Fd][Ec] [DB] [Fd]2 c |[M:7/4] B2 A [DB]3 z2 z2 z4 |] %21
V:2
 z4 z2 z [B,,B,] |[M:3/4] [B,,B,][B,,B,] [B,,B,][B,,B,] [C,A,][D,B,] | %2
 [E,B,][E,B,] [E,B,] [E,B,]2 [E,B,]/[E,B,]/ | %3
 [B,,B,][B,,B,] [B,,B,] [B,,F,]2 [D,B,]/[K:treble][F,A,F]/ |[M:7/8] F2 z z z z2[K:bass] | %5
[M:3/4] [B,,B,][B,,B,] [B,,B,][B,,B,] [C,A,][D,B,] |[M:5/8] [E,G,E][E,G,E][E,B,E] [E,G,E]2 | %7
[M:1/8] [E,B,]/[E,B,]/ |[M:3/4] [B,,B,][B,,F,] [B,,F,] [B,,B,]2 [E,G,E] | [F,D]2 [F,C] [B,,F,]3 | %10
[M:1/8] [B,,F,]/[B,,F,]/ |[M:3/4] z2 z B, z2 | [B,,B,]2 [B,,B,] [B,,F,]2 [B,,B,] | %13
[M:3/8] [E,B,E][E,B,E][E,B,E] | [E,E][E,E][E,B,] |[M:3/4] [E,B,][E,B,] [G,B,E] [B,D]2 [B,D] | %16
 [B,,B,][B,,B,] [B,,B,][B,,B,] [C,A,][D,B,] | [E,G,E][E,G,E] [E,B,E] [E,G,E]3 | %18
[M:1/8] [E,B,]/[E,B,]/ |[M:3/4] [B,,B,][B,,F,] [B,,F,] [B,,B,]2 [E,G,E] | %20
[M:7/4] [F,D]2 [F,C] [B,,F,]3 z2 z2 z4 |] %21
V:3
 x8 |[M:3/4] x6 | x6 | x11/2[K:treble] x/ |[M:7/8] B,[A,C][G,C=E] [F,A,F]3[K:bass] [F,A,] | %5
[M:3/4] x6 |[M:5/8] x5 |[M:1/8] x |[M:3/4] x6 | x6 |[M:1/8] x | %11
[M:3/4] [B,,B,][B,,B,] [B,,B,]B,,- [B,,F,E][B,,F,] | x6 |[M:3/8] x3 | x3 |[M:3/4] x6 | x6 | x6 | %18
[M:1/8] x |[M:3/4] x6 |[M:7/4] x14 |] %21

